apps/scalable/stock_xfburn-new-data-composition.svg

<svg xmlns="http://www.w3.org/2000/svg" style="isolation:isolate" width="256" height="256"><defs><filter id="a" width="270.648" height="254.338" x="-7.32" y="2.95" filterUnits="userSpaceOnUse"><feGaussianBlur xmlns="http://www.w3.org/2000/svg" in="SourceGraphic" stdDeviation="4.294"/><feOffset xmlns="http://www.w3.org/2000/svg" dy="4" result="pf_100_offsetBlur"/><feFlood xmlns="http://www.w3.org/2000/svg" flood-opacity=".4"/><feComposite xmlns="http://www.w3.org/2000/svg" in2="pf_100_offsetBlur" operator="in" result="pf_100_dropShadow"/><feBlend xmlns="http://www.w3.org/2000/svg" in="SourceGraphic" in2="pf_100_dropShadow"/></filter></defs><g filter="url(#a)"><linearGradient id="b" x1=".5" x2=".5" y1="-.036" y2="1.036" gradientTransform="matrix(244.648 0 0 228.338 5.676 11.947)" gradientUnits="userSpaceOnUse"><stop offset="0%"/><stop offset="100%" stop-color="#333"/></linearGradient><path fill="url(#b)" d="M165.685 11.947c74.055 0 84.639 10.557 84.639 84.544v59.251c0 73.986-10.584 84.543-84.639 84.543h-75.37c-74.055 0-84.639-10.557-84.639-84.543V96.491c0-73.987 10.584-84.544 84.639-84.544h75.37z"/></g><g opacity=".4"><linearGradient id="c" x1=".517" x2=".517" y2="1"><stop offset="0%" stop-color="#fff"/><stop offset="12.5%" stop-opacity=".098" stop-color="#fff"/><stop offset="92.5%" stop-opacity=".098"/><stop offset="100%" stop-opacity=".498"/></linearGradient><path fill="none" stroke="url(#c)" stroke-linecap="round" stroke-linejoin="round" stroke-width="4.077" d="M165.685 11.947c74.055 0 84.639 10.557 84.639 84.544v59.251c0 73.986-10.584 84.543-84.639 84.543h-75.37c-74.055 0-84.639-10.557-84.639-84.543V96.491c0-73.987 10.584-84.544 84.639-84.544h75.37z" vector-effect="non-scaling-stroke"/></g><path fill="#FFF" d="M5.676 126.116v29.626c0 73.986 10.584 84.543 84.639 84.543h75.37c74.055 0 84.639-10.557 84.639-84.543v-29.626H5.676z" opacity=".1"/><linearGradient id="d" x1=".567" x2=".567" y1="1.071" y2="-.071" gradientTransform="matrix(165 0 0 165 46.167 42.833)" gradientUnits="userSpaceOnUse"><stop offset="0%" stop-color="#a0a0a0"/><stop offset="100%" stop-color="#dfdfdf"/></linearGradient><path fill="url(#d)" d="M211.167 125.333c0-45.729-36.771-82.5-82.5-82.5s-82.5 36.771-82.5 82.5 36.771 82.5 82.5 82.5 82.5-36.771 82.5-82.5zm-52.317 0c0 16.614-13.238 30.183-30.183 30.183-17.278 0-30.183-13.905-30.183-30.183 0-16.61 12.24-30.183 30.183-30.183 17.943 0 30.183 13.903 30.183 30.183z"/><g filter="url(#5HlNYfu8XE3a71BVhpIsNe4X2q5o7JNQ)"><linearGradient id="e" x1=".533" x2=".533" y1="1" gradientTransform="matrix(2 0 0 2 -1 -1)" gradientUnits="userSpaceOnUse"><stop offset="0%" stop-color="#8ac249"/><stop offset="100%" stop-color="#aae961"/></linearGradient><circle fill="url(#e)" r="1" transform="translate(158 155.75) scale(43.25)" vector-effect="non-scaling-stroke"/><path fill="#F6F6F6" d="M165.465 147.702l-.07-17.548c-.01-2.757-2.275-5.006-5.033-4.994l-5.515.022c-2.756.009-5.005 2.276-4.994 5.034l.069 17.547-17.548.069a5.03 5.03 0 0 0-4.995 5.033l.023 5.515c.01 2.757 2.276 5.005 5.033 4.994l17.548-.069.069 17.548c.011 2.758 2.276 5.006 5.033 4.994l5.515-.021c2.759-.009 5.006-2.275 4.994-5.033l-.069-17.548 17.548-.069c2.758-.01 5.008-2.276 4.994-5.033l-.022-5.515c-.009-2.758-2.275-5.005-5.033-4.995l-17.547.069z"/></g><defs><filter id="5HlNYfu8XE3a71BVhpIsNe4X2q5o7JNQ" width="146.5" height="146.5" x="84.75" y="86.5" filterUnits="userSpaceOnUse"><feGaussianBlur xmlns="http://www.w3.org/2000/svg" in="SourceGraphic" stdDeviation="4.294"/><feOffset xmlns="http://www.w3.org/2000/svg" dy="4" result="pf_100_offsetBlur"/><feFlood xmlns="http://www.w3.org/2000/svg" flood-opacity=".4"/><feComposite xmlns="http://www.w3.org/2000/svg" in2="pf_100_offsetBlur" operator="in" result="pf_100_dropShadow"/><feBlend xmlns="http://www.w3.org/2000/svg" in="SourceGraphic" in2="pf_100_dropShadow"/></filter></defs></svg>

<svg xmlns="http://www.w3.org/2000/svg" style="isolation:isolate" width="256" height="256" viewBox="0 0 256 256">
 <defs>
  <filter id="QtGBDuh1xOh4oPX2Zvvooz3cNnXxTtIP" width="270.648" height="254.338" x="-7.32" y="2.95" filterUnits="userSpaceOnUse">
   <feGaussianBlur xmlns="http://www.w3.org/2000/svg" in="SourceGraphic" stdDeviation="4.294"/>
   <feOffset xmlns="http://www.w3.org/2000/svg" dx="0" dy="4" result="pf_100_offsetBlur"/>
   <feFlood xmlns="http://www.w3.org/2000/svg" flood-opacity=".4"/>
   <feComposite xmlns="http://www.w3.org/2000/svg" in2="pf_100_offsetBlur" operator="in" result="pf_100_dropShadow"/>
   <feBlend xmlns="http://www.w3.org/2000/svg" in="SourceGraphic" in2="pf_100_dropShadow" mode="normal"/>
  </filter>
 </defs>
 <g filter="url(#QtGBDuh1xOh4oPX2Zvvooz3cNnXxTtIP)">
  <linearGradient id="_lgradient_33" x1=".5" x2=".5" y1="-.036" y2="1.036" gradientTransform="matrix(244.648,0,0,228.338,5.676,11.947)" gradientUnits="userSpaceOnUse">
   <stop offset="0%" style="stop-color:rgb(0,0,0)"/>
   <stop offset="100%" style="stop-color:rgb(51,51,51)"/>
  </linearGradient>
  <path fill="url(#_lgradient_33)" d="M 165.685 11.947 C 239.74 11.947 250.324 22.504 250.324 96.491 L 250.324 155.742 C 250.324 229.728 239.74 240.285 165.685 240.285 L 90.315 240.285 C 16.26 240.285 5.676 229.728 5.676 155.742 L 5.676 96.491 C 5.676 22.504 16.26 11.947 90.315 11.947 L 165.685 11.947 Z"/>
 </g>
 <g opacity=".4">
  <linearGradient id="_lgradient_34" x1=".517" x2=".517" y1="0" y2="1">
   <stop offset="0%" style="stop-color:rgb(255,255,255)"/>
   <stop offset="12.5%" stop-opacity=".098" style="stop-color:rgb(255,255,255)"/>
   <stop offset="92.5%" stop-opacity=".098" style="stop-color:rgb(0,0,0)"/>
   <stop offset="100%" stop-opacity=".498" style="stop-color:rgb(0,0,0)"/>
  </linearGradient>
  <path fill="none" stroke="url(#_lgradient_34)" stroke-linecap="round" stroke-linejoin="round" stroke-width="4.077" d="M 165.685 11.947 C 239.74 11.947 250.324 22.504 250.324 96.491 L 250.324 155.742 C 250.324 229.728 239.74 240.285 165.685 240.285 L 90.315 240.285 C 16.26 240.285 5.676 229.728 5.676 155.742 L 5.676 96.491 C 5.676 22.504 16.26 11.947 90.315 11.947 L 165.685 11.947 Z" vector-effect="non-scaling-stroke"/>
 </g>
 <g opacity=".1">
  <path fill="#FFFFFF" d="M 5.676 126.116 L 5.676 155.742 C 5.676 229.728 16.26 240.285 90.315 240.285 L 165.685 240.285 C 239.74 240.285 250.324 229.728 250.324 155.742 L 250.324 126.116 L 5.676 126.116 Z"/>
 </g>
 <linearGradient id="_lgradient_35" x1=".567" x2=".567" y1="1.071" y2="-.071" gradientTransform="matrix(165,0,0,165,46.167,42.833)" gradientUnits="userSpaceOnUse">
  <stop offset="0%" style="stop-color:rgb(160,160,160)"/>
  <stop offset="100%" style="stop-color:rgb(223,223,223)"/>
 </linearGradient>
 <path fill="url(#_lgradient_35)" d="M 211.167 125.333 C 211.167 79.604 174.396 42.833 128.667 42.833 C 82.938 42.833 46.167 79.604 46.167 125.333 C 46.167 171.062 82.938 207.833 128.667 207.833 C 174.396 207.833 211.167 171.062 211.167 125.333 Z M 158.85 125.333 C 158.85 141.947 145.612 155.516 128.667 155.516 C 111.389 155.516 98.484 141.611 98.484 125.333 C 98.484 108.723 110.724 95.15 128.667 95.15 C 146.61 95.15 158.85 109.053 158.85 125.333 Z"/>
 <g filter="url(#5HlNYfu8XE3a71BVhpIsNe4X2q5o7JNQ)">
  <linearGradient id="_lgradient_36" x1=".533" x2=".533" y1="1" y2="0" gradientTransform="matrix(2,0,0,2,-1,-1)" gradientUnits="userSpaceOnUse">
   <stop offset="0%" style="stop-color:rgb(138,194,73)"/>
   <stop offset="100%" style="stop-color:rgb(170,233,97)"/>
  </linearGradient>
  <circle fill="url(#_lgradient_36)" cx="0" cy="0" r="1" transform="matrix(43.25,0,0,43.25,158,155.75)" vector-effect="non-scaling-stroke"/>
  <path fill="#F6F6F6" d="M 165.465 147.702 L 165.395 130.154 C 165.385 127.397 163.12 125.148 160.362 125.16 L 154.847 125.182 C 152.091 125.191 149.842 127.458 149.853 130.216 L 149.922 147.763 L 132.374 147.832 C 129.616 147.843 127.369 150.108 127.379 152.865 L 127.402 158.38 C 127.412 161.137 129.678 163.385 132.435 163.374 L 149.983 163.305 L 150.052 180.853 C 150.063 183.611 152.328 185.859 155.085 185.847 L 160.6 185.826 C 163.359 185.817 165.606 183.551 165.594 180.793 L 165.525 163.245 L 183.073 163.176 C 185.831 163.166 188.081 160.9 188.067 158.143 L 188.045 152.628 C 188.036 149.87 185.77 147.623 183.012 147.633 L 165.465 147.702 Z"/>
 </g>
 <defs>
  <filter id="5HlNYfu8XE3a71BVhpIsNe4X2q5o7JNQ" width="146.5" height="146.5" x="84.75" y="86.5" filterUnits="userSpaceOnUse">
   <feGaussianBlur xmlns="http://www.w3.org/2000/svg" in="SourceGraphic" stdDeviation="4.294"/>
   <feOffset xmlns="http://www.w3.org/2000/svg" dx="0" dy="4" result="pf_100_offsetBlur"/>
   <feFlood xmlns="http://www.w3.org/2000/svg" flood-opacity=".4"/>
   <feComposite xmlns="http://www.w3.org/2000/svg" in2="pf_100_offsetBlur" operator="in" result="pf_100_dropShadow"/>
   <feBlend xmlns="http://www.w3.org/2000/svg" in="SourceGraphic" in2="pf_100_dropShadow" mode="normal"/>
  </filter>
 </defs>
</svg>
